X:24
T:Nothing Like a Good Thing. JJo8.024
B:J.Johnson Choice Collection Vol 8 1758
Z:vmp.Simon Wilson 2013 www.village-music-project.org.uk
M:6/8
L:1/8
Q:3/8=120
K:A
|:E|A3A,2C|E2Ac2e|d3B,2d|cBcA2E|FEF GFG|A2cB2d|cea aec|{c}B3-B2:|
|:(B/4c/4^d/4)|eBGE3|F2AG2B|Ace cea|edc TB2A|GBd cea|aecd2f|edcTB3|A3A2:|
